!!!COM: Mozart, Wolfgang Amadeus
!!!OTL: Musikalische Würfelspiele, Kontre-Tänze
!!!SCA: K<sup>6</sup> Anh. C30.01 (K<sup>3</sup> Anh. 294d)
**kern	**kern
*staff2	*staff2
*clefF4	*clefG2
*M2/4	*M2/4
*MM110	*MM110
*>[A,A1,A,A2,B]	*>[A,A1,A,A2,B]
*>norep[A,A2,B]	*>norep[A,A2,B]
*>A	*>A
=7	=7
4C	8cc
.	8cc
4C	8ee
.	8ee
=81	=81
4C	8cc
.	8g
4r	8cc
.	8ee
=112	=112
4G	8ff
.	8dd
4GG	8b
.	8g
=71	=71
16C	8e 8cc
16CC	.
16EE	8e 8cc
16GG	.
16C	4e 4cc
16E	.
16G	.
16E	.
=149	=149
4D	8d
.	4dd
4r	.
.	16ff#
.	16aa
=153	=153
4G	16gg
.	16aa
.	16bb
.	16ccc
4GG	16ddd
.	16bb
.	16aa
.	16gg
=49	=49
4C	16ee
.	16cc
.	16b
.	16a
8D	16g
.	16b
8DD	16f#
.	16a
=130	=130
*>A1	*>A1
4GG	4g 4b 4gg
16G	4r
16F	.
16E	.
16D	.
=130:|!	=130:|!
*>A2	*>A2
4GG	4g 4b 4gg
16GG	4r
16AA	.
16BB	.
16C#	.
=93||	=93||
*>B	*>B
16D	4dd
16F#	.
16A	.
16F#	.
16C	8aa
16F#	.
16A	8ff#
16C	.
=124	=124
4G	8b
.	8d
4GG	8gg
.	8bb
=135	=135
4C	8ee
.	8gg
4C	16ff
.	16ee
.	16dd
.	16cc
=107	=107
16BB	8dd
16D	.
16G	4b
16D	.
16G	.
16F	.
16E	8g
16D	.
=42	=42
4C	8cc
.	16cc
.	16ee
4r	8gg
.	16gg
.	16ee
=88	=88
4C	8cc
.	16ee
.	16gg
4r	16ccc
.	16gg
.	16ee
.	16cc
=2	=2
4GG	8dd
.	8ff
4GG	8b
.	8dd
=127	=127
4C	4cc
4CC	4c
==	==
*-	*-
